X:21
T:Port Shean Tseain
T:Old John's Jig
E:10
S:Bill Dundon
I:speed 350
R:jig
M:6/8
K:ADor
cAA cAA|GEF GAB|cAA A2G|Add ded|\
cAA cAA|GEF GAB|cde =fed|cAG A3:|*
efg eaa|ged cAG|efg eaa|bag a3|\
efg eaa|ged cAA|cde =fed|cAG A3:|**
<end>
<start>
